;FLAVOR:UltiGCode
;TIME:322
;MATERIAL:606
;MATERIAL2:0
;NOZZLE_DIAMETER:0.4
;Generated with Cura_SteamEngine 2.3.1
;Basic settings:







M190 S75 ;{print_bed_temperature}

M109 S220 ;{print_temperature}

G21 ;metric values

G90 ;absolute positioning

M82 ;set extruder to absolute mode

<strike>M907 E1000 ;set extruder current to normal state



M107 ;start with the fan off

G28 X0 Y0 ;move X/Y to min endstops

G28 Z0 ;move Z to min endstops

G1 Z15.0 F{travel_speed}


G92 E0 ;zero the extruded length

G1 F200 E3 ;extrude 3mm of feed stock

G92 E0 ;zero the extruded length again

G1 F{travel_speed}


M117 Printing...
;LAYER_COUNT:35
;LAYER:0
M107
G10
G0 F2400 X103.287 Y105.473 Z.3
;TYPE:SKIRT
G11
G1 F1800 X103.939 Y104.847 E0.10846
G1 X104.154 Y104.67 E0.14188
G1 X105.162 Y103.965 E0.28949
G1 X105.433 Y103.809 E0.32701
G1 X106.53 Y103.297 E0.47229
G1 X106.824 Y103.19 E0.50983
G1 X108.001 Y102.874 E0.65607
G1 X108.311 Y102.819 E0.69385
G1 X109.531 Y102.712 E0.84082
G1 X109.845 Y102.712 E0.8785
G1 X111.064 Y102.819 E1.02534
G1 X111.374 Y102.874 E1.06312
G1 X112.55 Y103.19 E1.20924
G1 X112.843 Y103.296 E1.24664
G1 X113.942 Y103.808 E1.39212
G1 X114.214 Y103.965 E1.42981
G1 X115.22 Y104.669 E1.57716
G1 X115.462 Y104.873 E1.61514
G1 X116.322 Y105.735 E1.76125
G1 X116.501 Y105.944 E1.79427
G1 X117.042 Y106.684 E1.90427
G1 X117.186 Y106.915 E1.93694
G1 X117.385 Y107.298 E1.98873
G1 X117.878 Y107.255 E2.04812
G1 X118.256 Y107.262 E2.09349
G1 X118.503 Y107.31 E2.12368
G1 X119.328 Y107.533 E2.22623
G1 X119.681 Y107.67 E2.27167
G1 X119.891 Y107.797 E2.30112
G1 X120.595 Y108.29 E2.40426
G1 X120.88 Y108.538 E2.44959
G1 X121.042 Y108.74 E2.48066
G1 X121.53 Y109.445 E2.58355
G1 X121.712 Y109.777 E2.62899
G1 X121.789 Y110.004 E2.65775
G1 X122.005 Y110.811 E2.758
G1 X122.064 Y111.185 E2.80344
G1 X122.06 Y111.427 E2.83248
G1 X121.988 Y112.28 E2.9352
G1 X121.916 Y112.653 E2.98079
G1 X121.827 Y112.886 E3.01072
G1 X121.463 Y113.671 E3.11456
G1 X121.268 Y113.996 E3.16004
G1 X121.104 Y114.186 E3.19016
G1 X120.505 Y114.786 E3.29189
G1 X120.21 Y115.024 E3.33738
G1 X119.991 Y115.146 E3.36746
G1 X119.209 Y115.51 E3.47097
G1 X118.85 Y115.633 E3.51651
G1 X118.604 Y115.671 E3.54638
G1 X117.749 Y115.745 E3.64936
G1 X117.386 Y115.738 E3.69293
G1 X116.954 Y116.45 E3.79287
G1 X116.817 Y116.645 E3.82146
G1 X116.243 Y117.358 E3.9313
G1 X116.088 Y117.527 E3.95882
G1 X115.436 Y118.153 E4.06729
G1 X115.221 Y118.33 E4.10071
G1 X114.213 Y119.035 E4.24831
G1 X113.942 Y119.191 E4.28584
G1 X112.845 Y119.703 E4.43111
G1 X112.551 Y119.81 E4.46865
G1 X111.375 Y120.126 E4.61478
G1 X111.065 Y120.181 E4.65256
G1 X109.845 Y120.288 E4.79952
G1 X109.531 Y120.288 E4.8372
G1 X108.312 Y120.181 E4.98404
G1 X108.002 Y120.126 E5.02183
G1 X106.825 Y119.81 E5.16807
G1 X106.532 Y119.704 E5.20546
G1 X105.433 Y119.192 E5.35095
G1 X105.162 Y119.035 E5.38853
G1 X104.155 Y118.331 E5.53597
G1 X103.911 Y118.127 E5.57414
G1 X103.052 Y117.265 E5.72017
G1 X102.874 Y117.056 E5.75311
G1 X102.333 Y116.316 E5.86311
G1 X102.189 Y116.085 E5.89578
G1 X101.626 Y115.003 E6.04214
G1 X101.506 Y114.711 E6.08003
G1 X101.141 Y113.549 E6.22618
G1 X101.073 Y113.245 E6.26357
G1 X100.914 Y112.037 E6.40978
G1 X100.901 Y111.723 E6.44749
G1 X100.954 Y110.515 E6.59259
G1 X100.994 Y110.206 E6.62998
G1 X101.259 Y109.005 E6.77756
G1 X101.354 Y108.704 E6.81544
G1 X101.817 Y107.586 E6.96065
G1 X101.941 Y107.341 E6.9936
G1 X102.421 Y106.55 E7.10463
G1 X102.558 Y106.355 E7.13323
G1 X103.132 Y105.642 E7.24307
G1 X103.287 Y105.473 E7.27059
G0 F2400 X103.564 Y105.761
G1 F1800 X104.216 Y105.135 E7.37905
G1 X104.384 Y104.998 E7.40506
G1 X105.392 Y104.293 E7.55267
G1 X105.602 Y104.171 E7.58182
G1 X106.699 Y103.659 E7.72709
G1 X106.928 Y103.576 E7.75632
G1 X108.105 Y103.26 E7.90256
G1 X108.346 Y103.217 E7.93194
G1 X109.566 Y103.11 E8.0789
G1 X109.81 Y103.11 E8.10818
G1 X111.029 Y103.217 E8.25502
G1 X111.27 Y103.26 E8.2844
G1 X112.446 Y103.576 E8.43052
G1 X112.674 Y103.659 E8.45964
G1 X113.773 Y104.171 E8.60513
G1 X113.985 Y104.293 E8.63448
G1 X114.991 Y104.997 E8.78183
G1 X115.179 Y105.155 E8.8113
G1 X116.039 Y106.017 E8.95741
G1 X116.178 Y106.18 E8.98312
G1 X116.719 Y106.92 E9.09312
G1 X116.831 Y107.1 E9.11856
G1 X117.153 Y107.719 E9.20229
G1 X117.912 Y107.653 E9.29371
G1 X118.398 Y107.697 E9.35227
G1 X119.223 Y107.92 E9.45482
G1 X119.661 Y108.124 E9.5128
G1 X120.365 Y108.617 E9.61594
G1 X120.713 Y108.967 E9.67517
G1 X121.201 Y109.672 E9.77806
G1 X121.402 Y110.107 E9.83556
G1 X121.618 Y110.914 E9.93581
G1 X121.661 Y111.394 E9.99364
G1 X121.589 Y112.247 E10.09636
G1 X121.464 Y112.718 E10.15484
G1 X121.1 Y113.503 E10.25867
G1 X120.821 Y113.903 E10.3172
G1 X120.222 Y114.503 E10.41894
G1 X119.822 Y114.783 E10.47753
G1 X119.04 Y115.147 E10.58103
G1 X118.57 Y115.273 E10.63943
G1 X117.715 Y115.347 E10.74241
G1 X117.23 Y115.304 E10.80084
G1 X117.174 Y115.289 E10.8078
G1 X117.092 Y115.451 E10.82958
G1 X116.612 Y116.242 E10.94061
G1 X116.506 Y116.394 E10.96285
G1 X115.932 Y117.107 E11.07269
G1 X115.811 Y117.239 E11.09418
G1 X115.159 Y117.865 E11.20264
G1 X114.991 Y118.002 E11.22866
G1 X113.983 Y118.707 E11.37627
G1 X113.773 Y118.829 E11.40541
G1 X112.676 Y119.341 E11.55068
G1 X112.447 Y119.424 E11.57991
G1 X111.271 Y119.74 E11.72604
G1 X111.03 Y119.783 E11.75541
G1 X109.81 Y119.89 E11.90238
G1 X109.566 Y119.89 E11.93166
G1 X108.347 Y119.783 E12.0785
G1 X108.106 Y119.74 E12.10788
G1 X106.929 Y119.424 E12.25412
G1 X106.701 Y119.341 E12.28323
G1 X105.602 Y118.829 E12.42872
G1 X105.391 Y118.707 E12.45797
G1 X104.384 Y118.003 E12.60541
G1 X104.194 Y117.844 E12.63514
G1 X103.335 Y116.982 E12.78118
G1 X103.197 Y116.82 E12.80671
G1 X102.656 Y116.08 E12.91671
G1 X102.544 Y115.9 E12.94215
G1 X101.981 Y114.818 E13.08852
G1 X101.887 Y114.592 E13.11789
G1 X101.522 Y113.43 E13.26405
G1 X101.47 Y113.193 E13.29316
G1 X101.311 Y111.985 E13.43937
G1 X101.3 Y111.741 E13.46868
G1 X101.353 Y110.533 E13.61378
G1 X101.385 Y110.292 E13.64296
G1 X101.65 Y109.091 E13.79054
G1 X101.724 Y108.857 E13.81999
G1 X102.187 Y107.739 E13.9652
G1 X102.283 Y107.549 E13.99075
G1 X102.763 Y106.758 E14.10178
G1 X102.869 Y106.606 E14.12402
G1 X103.443 Y105.893 E14.23386
G1 X103.564 Y105.761 E14.25534
G0 F2400 X103.841 Y106.05
G1 F1800 X104.493 Y105.424 E14.36381
G1 X104.613 Y105.326 E14.3824
G1 X105.621 Y104.621 E14.53001
G1 X105.771 Y104.534 E14.55082
G1 X106.868 Y104.022 E14.69609
G1 X107.032 Y103.962 E14.71705
G1 X108.209 Y103.646 E14.86329
G1 X108.381 Y103.616 E14.88424
G1 X109.601 Y103.509 E15.0312
G1 X109.775 Y103.509 E15.05208
G1 X110.994 Y103.616 E15.19892
G1 X111.167 Y103.646 E15.21999
G1 X112.343 Y103.962 E15.36612
G1 X112.505 Y104.022 E15.38685
G1 X113.604 Y104.534 E15.53234
G1 X113.755 Y104.621 E15.55325
G1 X114.761 Y105.325 E15.7006
G1 X114.896 Y105.438 E15.72172
G1 X115.756 Y106.3 E15.86784
G1 X115.855 Y106.416 E15.88614
G1 X116.396 Y107.156 E15.99614
G1 X116.476 Y107.284 E16.01425
G1 X116.936 Y108.168 E16.13384
G1 X117.093 Y108.126 E16.15334
G1 X117.947 Y108.052 E16.2562
G1 X118.294 Y108.083 E16.29801
G1 X119.119 Y108.306 E16.40056
G1 X119.432 Y108.452 E16.44201
G1 X120.136 Y108.945 E16.54514
G1 X120.384 Y109.195 E16.5874
G1 X120.872 Y109.9 E16.69029
G1 X121.016 Y110.21 E16.73131
G1 X121.232 Y111.017 E16.83155
G1 X121.262 Y111.36 E16.87287
G1 X121.19 Y112.213 E16.9756
G1 X121.101 Y112.55 E17.01742
G1 X120.737 Y113.335 E17.12126
G1 X120.538 Y113.621 E17.16307
G1 X119.939 Y114.221 E17.26481
G1 X119.653 Y114.421 E17.30668
G1 X118.871 Y114.785 E17.41019
G1 X118.535 Y114.874 E17.4519
G1 X117.68 Y114.948 E17.55489
G1 X117.334 Y114.918 E17.59656
G1 X116.939 Y114.812 E17.64564
G1 X116.822 Y115.101 E17.68305
G1 X116.75 Y115.244 E17.70227
G1 X116.27 Y116.035 E17.8133
G1 X116.194 Y116.143 E17.82914
G1 X115.62 Y116.856 E17.93898
G1 X115.534 Y116.95 E17.95427
G1 X114.882 Y117.576 E18.06274
G1 X114.762 Y117.674 E18.08133
G1 X113.754 Y118.379 E18.22894
G1 X113.604 Y118.466 E18.24975
G1 X112.507 Y118.978 E18.39502
G1 X112.344 Y119.038 E18.41586
G1 X111.168 Y119.354 E18.56199
G1 X110.995 Y119.384 E18.58306
G1 X109.775 Y119.491 E18.73002
G1 X109.601 Y119.491 E18.7509
G1 X108.382 Y119.384 E18.89774
G1 X108.21 Y119.354 E18.91869
G1 X107.033 Y119.038 E19.06493
G1 X106.87 Y118.978 E19.08578
G1 X105.771 Y118.466 E19.23127
G1 X105.62 Y118.38 E19.25212
G1 X104.613 Y117.676 E19.39956
G1 X104.478 Y117.562 E19.42077
G1 X103.619 Y116.7 E19.5668
G1 X103.52 Y116.584 E19.5851
G1 X102.979 Y115.844 E19.6951
G1 X102.899 Y115.716 E19.71321
G1 X102.336 Y114.634 E19.85958
G1 X102.269 Y114.472 E19.88061
G1 X101.904 Y113.31 E20.02677
G1 X101.867 Y113.14 E20.04765
G1 X101.708 Y111.932 E20.19386
G1 X101.7 Y111.758 E20.21476
G1 X101.753 Y110.55 E20.35986
G1 X101.775 Y110.379 E20.38055
G1 X102.04 Y109.178 E20.52814
G1 X102.093 Y109.01 E20.54928
G1 X102.556 Y107.892 E20.69448
G1 X102.625 Y107.756 E20.71278
G1 X103.105 Y106.965 E20.82381
G1 X103.181 Y106.857 E20.83966
G1 X103.755 Y106.144 E20.9495
G1 X103.841 Y106.05 E20.96479
G0 F2400 X104.067 Y106.395
G1 F1800 X104.118 Y106.338 E20.97397
G1 X104.77 Y105.712 E21.08243
G1 X104.842 Y105.653 E21.0936
G1 X105.85 Y104.948 E21.24121
G1 X105.94 Y104.896 E21.25369
G1 X107.037 Y104.384 E21.39896
G1 X107.135 Y104.349 E21.41145
G1 X108.312 Y104.033 E21.55769
G1 X108.416 Y104.014 E21.57037
G1 X109.636 Y103.907 E21.71734
G1 X109.74 Y103.907 E21.72982
G1 X110.959 Y104.014 E21.87666
G1 X111.063 Y104.033 E21.88935
G1 X112.239 Y104.349 E22.03547
G1 X112.336 Y104.384 E22.04785
G1 X113.435 Y104.896 E22.19334
G1 X113.526 Y104.948 E22.20591
G1 X114.532 Y105.652 E22.35326
G1 X114.613 Y105.72 E22.36595
G1 X115.473 Y106.582 E22.51206
G1 X115.532 Y106.652 E22.52305
G1 X116.073 Y107.392 E22.63305
G1 X116.121 Y107.469 E22.64394
G1 X116.683 Y108.549 E22.79003
G1 X116.716 Y108.623 E22.79976
G1 X116.732 Y108.669 E22.8056
G1 X116.924 Y108.579 E22.83105
G1 X117.127 Y108.524 E22.85629
G1 X117.981 Y108.45 E22.95915
G1 X118.19 Y108.469 E22.98433
G1 X119.015 Y108.692 E23.08689
G1 X119.202 Y108.78 E23.11169
G1 X119.906 Y109.273 E23.21482
G1 X120.055 Y109.423 E23.24019
G1 X120.543 Y110.128 E23.34308
G1 X120.63 Y110.314 E23.36772
G1 X120.846 Y111.121 E23.46797
G1 X120.864 Y111.326 E23.49267
G1 X120.792 Y112.179 E23.59539
G1 X120.738 Y112.381 E23.62048
G1 X120.374 Y113.166 E23.72432
G1 X120.255 Y113.338 E23.74942
G1 X119.656 Y113.938 E23.85115
G1 X119.484 Y114.058 E23.87632
G1 X118.702 Y114.422 E23.97983
G1 X118.501 Y114.476 E24.0048
G1 X117.646 Y114.55 E24.10779
G1 X117.438 Y114.531 E24.13285
G1 X116.702 Y114.333 E24.22431
G1 X116.451 Y114.951 E24.30436
G1 X116.408 Y115.036 E24.31579
G1 X115.928 Y115.827 E24.42682
G1 X115.882 Y115.892 E24.43637
G1 X115.308 Y116.605 E24.54621
G1 X115.257 Y116.662 E24.55539
G1 X114.605 Y117.288 E24.66385
G1 X114.533 Y117.347 E24.67502
G1 X113.525 Y118.052 E24.82263
G1 X113.435 Y118.104 E24.83511
G1 X112.338 Y118.616 E24.98038
G1 X112.24 Y118.651 E24.99287
G1 X111.064 Y118.967 E25.13899
G1 X110.96 Y118.986 E25.15168
G1 X109.74 Y119.093 E25.29864
G1 X109.636 Y119.093 E25.31112
G1 X108.417 Y118.986 E25.45796
G1 X108.313 Y118.967 E25.47065
G1 X107.136 Y118.651 E25.61689
G1 X107.039 Y118.616 E25.62927
G1 X105.94 Y118.104 E25.77476
G1 X105.849 Y118.052 E25.78733
G1 X104.842 Y117.348 E25.93478
G1 X104.761 Y117.28 E25.94747
G1 X103.902 Y116.418 E26.0935
G1 X103.843 Y116.348 E26.10448
G1 X103.302 Y115.608 E26.21448
G1 X103.254 Y115.531 E26.22537
G1 X102.691 Y114.449 E26.37174
G1 X102.651 Y114.352 E26.38433
G1 X102.286 Y113.19 E26.53049
G1 X102.263 Y113.088 E26.54303
G1 X102.104 Y111.88 E26.68924
G1 X102.1 Y111.776 E26.70173
G1 X102.153 Y110.568 E26.84683
G1 X102.166 Y110.465 E26.85929
G1 X102.431 Y109.264 E27.00688
G1 X102.463 Y109.163 E27.01959
G1 X102.926 Y108.045 E27.1648
G1 X102.967 Y107.964 E27.17569
G1 X103.447 Y107.173 E27.28672
G1 X103.493 Y107.108 E27.29628
G1 X104.067 Y106.395 E27.40612
G0 F2400 X104.378 Y106.646
G1 F1800 X104.395 Y106.627 E27.40918
G1 X105.047 Y106.001 E27.51764
G1 X105.071 Y105.981 E27.52139
G1 X106.079 Y105.276 E27.669
G1 X106.109 Y105.259 E27.67314
G1 X107.206 Y104.747 E27.81841
G1 X107.239 Y104.735 E27.82263
G1 X108.416 Y104.419 E27.96887
G1 X108.451 Y104.413 E27.97313
G1 X109.671 Y104.306 E28.12009
G1 X109.705 Y104.306 E28.12417
G1 X110.924 Y104.413 E28.27101
G1 X110.959 Y104.419 E28.27527
G1 X112.135 Y104.735 E28.4214
G1 X112.167 Y104.747 E28.4255
G1 X113.266 Y105.259 E28.57099
G1 X113.297 Y105.276 E28.57523
G1 X114.303 Y105.98 E28.72258
G1 X114.33 Y106.003 E28.72683
G1 X115.19 Y106.865 E28.87295
G1 X115.209 Y106.888 E28.87653
G1 X115.75 Y107.628 E28.98653
G1 X115.766 Y107.654 E28.99019
G1 X116.328 Y108.734 E29.13629
G1 X116.339 Y108.758 E29.13946
G1 X116.504 Y109.218 E29.1981
G1 X117.094 Y108.941 E29.27632
G1 X117.162 Y108.923 E29.28476
G1 X118.016 Y108.849 E29.38762
G1 X118.085 Y108.855 E29.39593
G1 X118.91 Y109.078 E29.49849
G1 X118.973 Y109.107 E29.50681
G1 X119.677 Y109.6 E29.60994
G1 X119.726 Y109.65 E29.61834
G1 X120.214 Y110.355 E29.72124
G1 X120.243 Y110.417 E29.72945
G1 X120.459 Y111.224 E29.8297
G1 X120.465 Y111.293 E29.83801
G1 X120.393 Y112.146 E29.94073
G1 X120.375 Y112.213 E29.94906
G1 X120.011 Y112.998 E30.05289
G1 X119.972 Y113.055 E30.06118
G1 X119.373 Y113.655 E30.16292
G1 X119.315 Y113.695 E30.17137
G1 X118.533 Y114.059 E30.27488
G1 X118.466 Y114.077 E30.28321
G1 X117.611 Y114.151 E30.38619
G1 X117.542 Y114.145 E30.3945
G1 X116.721 Y113.924 E30.49653
G1 X116.673 Y113.904 E30.50277
G1 X116.487 Y113.796 E30.52858
G1 X116.08 Y114.8 E30.65858
G1 X116.066 Y114.829 E30.66245
G1 X115.586 Y115.62 E30.77347
G1 X115.571 Y115.641 E30.77657
G1 X114.997 Y116.354 E30.88641
G1 X114.98 Y116.373 E30.88947
G1 X114.328 Y116.999 E30.99794
G1 X114.304 Y117.019 E31.00168
G1 X113.296 Y117.724 E31.14929
G1 X113.266 Y117.741 E31.15343
G1 X112.169 Y118.253 E31.2987
G1 X112.136 Y118.265 E31.30292
G1 X110.96 Y118.581 E31.44904
G1 X110.925 Y118.587 E31.4533
G1 X109.705 Y118.694 E31.60027
G1 X109.671 Y118.694 E31.60435
G1 X108.452 Y118.587 E31.75119
G1 X108.417 Y118.581 E31.75545
G1 X107.24 Y118.265 E31.90169
G1 X107.208 Y118.253 E31.90579
G1 X106.109 Y117.741 E32.05128
G1 X106.078 Y117.724 E32.05553
G1 X105.071 Y117.02 E32.20297
G1 X105.044 Y116.997 E32.20722
G1 X104.185 Y116.135 E32.35326
G1 X104.166 Y116.112 E32.35684
G1 X103.625 Y115.372 E32.46684
G1 X103.609 Y115.346 E32.4705
G1 X103.046 Y114.264 E32.61686
G1 X103.032 Y114.232 E32.62106
G1 X102.667 Y113.07 E32.76721
G1 X102.66 Y113.036 E32.77138
G1 X102.501 Y111.828 E32.91759
G1 X102.499 Y111.793 E32.9218
G1 X102.552 Y110.585 E33.0669
G1 X102.557 Y110.551 E33.07102
G1 X102.822 Y109.35 E33.21861
G1 X102.832 Y109.316 E33.22286
G1 X103.295 Y108.198 E33.36807
G1 X103.309 Y108.171 E33.37172
G1 X103.789 Y107.38 E33.48275
G1 X103.804 Y107.359 E33.48584
G1 X104.378 Y106.646 E33.59569
G10
G0 F2400 X104.027 Y106.34
G0 X104.026 Y106.34
G0 X104.076 Y106.402
G0 X107.292 Y110.344
G0 X107.343 Y110.406
G0 X107.341 Y110.403
G0 X107.088 Y110.15
;TYPE:SUPPORT
G11
G1 F1800 X112.287 Y110.15 E34.21957
G1 X112.287 Y112.85 E34.54357
G1 X107.088 Y112.85 E35.16745
G1 X107.088 Y110.15 E35.49145
G10
G0 F2400 X107.128 Y111.972
G11
G1 F1800 X112.247 Y111.972 E36.10573
G10
G0 F2400 X111.972 Y112.81
G11
G1 F1800 X111.972 Y110.19 E36.42013
G10
G0 F2400 X109.306 Y110.19
G11
G1 F1800 X109.306 Y112.81 E36.73453
G10
G0 F2400 X109.306 Y113.89
G0 X106.018 Y113.92
G0 X106.088 Y113.85
;TYPE:WALL-INNER
G11
G1 F1800 X113.287 Y113.85 E37.59841
G1 X113.287 Y109.15 E38.16241
G1 X106.088 Y109.15 E39.02629
G1 X106.088 Y113.85 E39.59029
G0 F2400 X106.018 Y113.92
